svg/UnitedNations-Flags/flag-mz.svg

<?xml version="1.0" encoding="UTF-8" standalone="no"?>
<!-- Created with Inkscape (http://www.inkscape.org/) --><svg height="256" id="svg912" inkscape:output_extension="org.inkscape.output.svg.inkscape" inkscape:version="0.46" sodipodi:docname="Flag_of_Mozambique.svg" sodipodi:version="0.32" version="1.0" width="256" xmlns="http://www.w3.org/2000/svg" xmlns:cc="http://creativecommons.org/ns#" xmlns:dc="http://purl.org/dc/elements/1.1/" xmlns:inkscape="http://www.inkscape.org/namespaces/inkscape" xmlns:rdf="http://www.w3.org/1999/02/22-rdf-syntax-ns#" xmlns:sodipodi="http://sodipodi.sourceforge.net/DTD/sodipodi-0.dtd" xmlns:svg="http://www.w3.org/2000/svg">
  <metadata>
    <rdf:RDF xmlns:cc="http://web.resource.org/cc/" xmlns:dc="http://purl.org/dc/elements/1.1/" xmlns:rdf="http://www.w3.org/1999/02/22-rdf-syntax-ns#">
      <cc:Work rdf:about="">
        <dc:title></dc:title>
        <dc:description></dc:description>
        <dc:subject>
          <rdf:Bag>
            <rdf:li>unsorted</rdf:li>
          </rdf:Bag>
        </dc:subject>
        <dc:publisher>
          <cc:Agent rdf:about="http://www.openclipart.org/">
            <dc:title>Open Clip Art Library, Source: Wikimedia Commons, Source: Wikimedia Commons, Source: Wikimedia Commons, Source: Wikimedia Commons</dc:title>
          </cc:Agent>
        </dc:publisher>
        <dc:creator>
          <cc:Agent>
            <dc:title></dc:title>
          </cc:Agent>
        </dc:creator>
        <dc:rights>
          <cc:Agent>
            <dc:title></dc:title>
          </cc:Agent>
        </dc:rights>
        <dc:date></dc:date>
        <dc:format>image/svg+xml</dc:format>
        <dc:type rdf:resource="http://purl.org/dc/dcmitype/StillImage"/>
        <cc:license rdf:resource="http://en.wikipedia.org/wiki/Public_domain"/>
        <dc:language>en</dc:language>
      </cc:Work>
    </rdf:RDF>
  </metadata>
  <sodipodi:namedview bordercolor="#666666" borderopacity="1.0" gridtolerance="10.0" guidetolerance="10.0" id="base" inkscape:current-layer="svg912" inkscape:cx="450" inkscape:cy="300" inkscape:pageopacity="0.0" inkscape:pageshadow="2" inkscape:window-height="785" inkscape:window-width="814" inkscape:window-x="15" inkscape:window-y="81" inkscape:zoom="0.62111111" objecttolerance="10.0" pagecolor="#ffffff" showgrid="false"/>
  <defs id="defs914">
    <inkscape:perspective id="perspective4046" inkscape:persp3d-origin="450 : 200 : 1" inkscape:vp_x="0 : 300 : 1" inkscape:vp_y="0 : 1000 : 0" inkscape:vp_z="900 : 300 : 1" sodipodi:type="inkscape:persp3d"/>
  </defs>
  <rect height="170.66667" id="rect934" style="font-size:12px;fill:#000000;fill-opacity:1;fill-rule:evenodd;stroke-width:1pt" width="256" x="0" y="42.333324"/>
  <rect height="58.666683" id="rect935" style="font-size:12px;fill:#ffffff;fill-opacity:1;fill-rule:evenodd;stroke-width:1pt" width="256" x="0" y="42.333202"/>
  <rect height="53.333332" id="rect937" style="font-size:12px;fill:#007168;fill-opacity:1;fill-rule:evenodd;stroke-width:1pt" width="256" x="0" y="42.333324"/>
  <rect height="58.737804" id="rect933" style="font-size:12px;fill:#ffffff;fill-opacity:1;fill-rule:evenodd;stroke-width:1pt" width="256" x="0" y="154.26207"/>
  <rect height="53.333332" id="rect931" style="font-size:12px;fill:#fce100;fill-opacity:1;fill-rule:evenodd;stroke-width:1pt" width="256" x="0" y="159.66667"/>
  <path d="M 0,42.333311 L 0,212.99998 L 112,127.66665 L 0,42.333311 z" id="path932" style="font-size:12px;fill:#d21034;fill-opacity:1;fill-rule:evenodd;stroke-width:1pt"/>
  <g id="g1913" transform="matrix(0.2844444,0,0,0.2844444,0,42.333311)">
    <path d="M 189.54603,214.56867 L 128.78569,171.99623 L 69.930531,217.0706 L 91.643351,146.12847 L 30.587837,104.08263 L 104.76744,102.81043 L 125.88822,31.750306 L 150.02091,101.90617 L 224.12978,100.03443 L 164.86501,144.66535 L 189.54603,214.56867 z" id="polygon916" style="font-size:12px;fill:#fce100;fill-opacity:1;fill-rule:evenodd;stroke-width:1pt" transform="matrix(1.221793,2.542786e-2,-2.542786e-2,1.221793,-21.7604,145.5065)"/>
    <path d="M 77.1122,167.913 L 118.946,167.913 C 122.312,171.689 129.822,173.229 136.975,167.868 C 150.087,160.688 175.454,167.913 175.454,167.913 L 180.449,162.606 L 168.273,122.645 L 163.902,117.962 C 163.902,117.962 154.537,112.343 136.741,114.216 C 118.946,116.089 112.702,113.592 112.702,113.592 C 112.702,113.592 97.0927,115.465 92.7219,117.65 C 92.2414,118.039 87.7268,122.645 87.7268,122.645 L 77.1122,167.913 z" id="path919" style="fill:#ffffff;fill-opacity:1;fill-rule:evenodd;stroke:#000000;stroke-width:1.25;stroke-linecap:round;stroke-linejoin:round;stroke-dasharray:none;stroke-opacity:1" transform="matrix(1.259719,0,0,1.259719,-29.41569,140.9042)"/>
    <path d="M 85.5415,157.611 C 85.5415,157.611 125.502,152.616 137.054,167.913 C 130.53,172.377 124.786,172.745 118.634,168.226 C 119.614,166.593 132.995,152.616 167.024,157.299" id="path918" style="fill:none;fill-opacity:1;fill-rule:evenodd;stroke:#000000;stroke-width:1.25;stroke-linecap:round;stroke-linejoin:round;stroke-dasharray:none;stroke-opacity:1" transform="matrix(1.259719,0,0,1.259719,-29.41569,140.9042)"/>
    <path d="M 128.312,117.65 L 128,161.67" id="path920" style="fill:none;fill-opacity:1;fill-rule:evenodd;stroke:#000000;stroke-width:1pt;stroke-linecap:butt;stroke-linejoin:miter;stroke-opacity:1" transform="matrix(1.259719,0,0,1.259719,-29.41569,140.9042)"/>
    <path d="M 163.902,118.274 L 171.395,153.24" id="path921" style="fill:none;fill-opacity:1;fill-rule:evenodd;stroke:#000000;stroke-width:1pt;stroke-linecap:butt;stroke-linejoin:miter;stroke-opacity:1" transform="matrix(1.259719,0,0,1.259719,-29.41569,140.9042)"/>
    <path d="M 93.1339,117.725 L 88.9756,135.757" id="path922" style="fill:none;fill-opacity:1;fill-rule:evenodd;stroke:#000000;stroke-width:1.25;stroke-linecap:round;stroke-linejoin:round;stroke-dasharray:none;stroke-opacity:1" transform="matrix(1.259719,0,0,1.259719,-29.41569,140.9042)"/>
    <path d="M 49.9417,172.706 L 59.7799,184.241 C 60.9352,184.93 61.9614,184.886 62.9876,184.241 L 77.5681,166.745 L 83.6919,159.163 C 84.6401,158.04 84.9428,156.787 84.8583,155.664 L 96.5657,145.261 C 97.5234,145.327 98.0938,145.435 99.0515,145.5 C 97.92,145.207 97.0898,144.656 97.9807,143.416 L 100.605,141.375 L 102.646,143.999 C 102.646,143.999 99.7304,147.79 99.4388,147.79 C 99.1472,147.79 96.2311,147.79 96.2311,147.79 L 90.1073,153.331 L 92.7843,155.697 L 96.8143,166.745 L 101.772,163.245 L 98.5639,151.873 L 105.563,144.291 L 102.938,140.208 L 104.688,137.875 C 104.688,137.875 128.91,153.125 138.242,149.043 C 138.494,149.134 138.806,138.167 138.806,138.167 C 138.806,138.167 113.728,135.543 113.144,130.585 C 112.561,125.628 118.685,125.045 118.685,125.045 L 116.06,121.254 L 116.644,119.212 L 121.018,124.753 L 130.933,116.296 L 189.254,182.783 C 192.438,181.492 193.118,180.713 193.337,177.534 C 193.255,177.454 136.182,111.922 136.182,111.922 L 140.556,107.257 C 141.418,106.285 141.721,105.872 141.722,104.34 L 148.429,98.5082 C 150.446,99.2011 151.732,100.41 152.803,102.007 L 171.242,86.3801 C 171.728,86.8661 173.204,87.3521 174.206,86.8055 L 204.691,57.5442 L 171.466,81.0116 L 170.3,80.1368 C 170.3,79.1647 171.505,78.9243 170.3,77.2207 C 169.009,75.6716 167.092,78.6788 166.801,78.6788 C 166.509,78.6788 161.992,77.0824 161.002,75.06 L 160.677,80.4284 L 152.22,88.3019 L 145.805,88.0103 L 136.473,97.0501 L 135.307,100.549 L 136.765,103.466 C 136.765,103.466 131.807,107.84 131.807,107.548 C 131.807,107.257 130.805,106.259 130.762,106.13 L 135.015,102.299 L 135.598,99.6747 L 134.179,97.4589 C 133.749,97.7714 128.308,103.466 128.016,102.882 C 127.53,102.338 112.27,85.0942 112.27,85.0942 L 113.144,81.8865 L 103.23,71.0969 C 99.6155,69.849 93.8982,69.6389 92.7318,77.5123 C 91.8235,79.3616 84.2751,77.8039 84.2751,77.8039 L 80.1926,78.6788 L 57.1554,111.339 L 69.9862,126.794 L 96.2311,93.5508 L 97.0102,84.1332 L 102.517,90.2905 C 104.353,90.5264 106.102,90.5471 107.766,89.7073 L 123.315,107.063 L 120.726,109.589 C 121.601,110.561 122.203,111.182 123.078,112.154 C 123.953,111.571 124.788,110.871 125.663,110.287 C 125.955,110.677 126.441,111.416 126.733,111.805 C 125.43,112.514 124.516,113.458 123.213,114.167 C 121.128,112.808 119.115,111.116 119.268,108.423 L 110.52,115.713 L 110.228,117.171 L 84.2751,138.75 L 81.9422,139.042 L 81.359,145.749 L 98.2723,131.752 L 98.2723,129.71 L 100.022,131.168 L 113.144,120.671 C 113.144,120.671 114.019,121.837 113.728,121.837 C 113.436,121.837 102.063,132.335 102.063,132.335 L 101.772,133.501 L 99.7304,135.251 L 98.5639,134.376 L 82.817,148.373 L 80.4842,148.373 L 71.7359,157.122 C 69.4795,157.318 67.5243,157.557 65.6121,158.871 L 49.9417,172.706 z" id="path917" style="fill:#000000;fill-opacity:1;fill-rule:evenodd;stroke:#000000;stroke-width:1.25;stroke-linecap:round;stroke-linejoin:round;stroke-dasharray:none;stroke-opacity:1" transform="matrix(1.259719,0,0,1.259719,-29.41569,140.9042)"/>
  </g>
</svg>

<svg xmlns="http://www.w3.org/2000/svg" viewBox="0 0 256 256"><g fill-rule="evenodd" stroke-width="1.25"><path d="m0 42.33h256v170.67h-256z"/><path fill="#fff" d="m0 42.33h256v58.667h-256z"/><path fill="#007168" d="m0 42.33h256v53.33h-256z"/><path fill="#fff" d="m0 154.26h256v58.738h-256z"/><path fill="#fce100" d="m0 159.67h256v53.33h-256z"/><path d="m0 42.33v170.67l112-85.33-112-85.33" fill="#d21034"/><path d="m189.55 214.57l-60.76-42.572-58.855 45.07 21.713-70.942-61.06-42.05 74.18-1.272 21.12-71.06 24.13 70.16 74.11-1.872-59.26 44.631 24.681 69.903" transform="matrix(.34753.00723-.00723.34753-6.19 83.72)" fill="#fce100"/><g stroke="#000" transform="matrix(.35832 0 0 .35832-8.367 82.41)"><g stroke-linejoin="round" stroke-linecap="round"><path d="m77.11 167.91h41.834c3.366 3.776 10.876 5.316 18.03-.045 13.11-7.18 38.479.045 38.479.045l4.995-5.307-12.176-39.961-4.371-4.683c0 0-9.365-5.619-27.16-3.746-17.795 1.873-24.04-.624-24.04-.624 0 0-15.609 1.873-19.98 4.058-.481.389-4.995 4.995-4.995 4.995l-10.615 45.27z" fill="#fff"/><path d="m85.54 157.61c0 0 39.96-4.995 51.51 10.302-6.524 4.464-12.268 4.832-18.42.313.98-1.633 14.361-15.61 48.39-10.927" fill="none"/></g><g fill="none"><path d="m128.31 117.65l-.312 44.02"/><path d="m163.9 118.27l7.493 34.966"/><path d="m93.13 117.72l-4.158 18.03" stroke-linejoin="round" stroke-linecap="round"/></g><path d="m49.942 172.71l9.838 11.535c1.155.689 2.181.645 3.208 0l14.581-17.496 6.124-7.582c.948-1.123 1.251-2.376 1.166-3.499l11.707-10.403c.958.066 1.528.174 2.486.239-1.132-.293-1.962-.844-1.071-2.084l2.624-2.041 2.041 2.624c0 0-2.916 3.791-3.207 3.791-.292 0-3.208 0-3.208 0l-6.124 5.541 2.677 2.366 4.03 11.05 4.958-3.5-3.208-11.372 6.999-7.582-2.625-4.083 1.75-2.333c0 0 24.22 15.25 33.554 11.168.252.091.564-10.876.564-10.876 0 0-25.08-2.624-25.662-7.582-.583-4.957 5.541-5.54 5.541-5.54l-2.625-3.791.584-2.042 4.374 5.541 9.915-8.457 58.32 66.49c3.184-1.291 3.864-2.07 4.083-5.249-.082-.08-57.16-65.61-57.16-65.61l4.374-4.665c.862-.972 1.165-1.385 1.166-2.917l6.707-5.832c2.02.693 3.303 1.902 4.374 3.499l18.439-15.627c.486.486 1.962.972 2.964.425l30.485-29.26-33.22 23.467-1.166-.875c0-.972 1.205-1.212 0-2.916-1.291-1.549-3.208 1.458-3.499 1.458-.292 0-4.809-1.596-5.799-3.619l-.325 5.368-8.457 7.874-6.415-.292-9.332 9.04-1.166 3.499 1.458 2.917c0 0-4.958 4.374-4.958 4.082 0-.291-1-1.289-1.045-1.418l4.253-3.831.583-2.624-1.419-2.216c-.43.313-5.871 6.01-6.163 5.423-.486-.544-15.746-17.788-15.746-17.788l.874-3.208-9.914-10.79c-3.615-1.248-9.332-1.458-10.498 6.415-.908 1.849-8.457.292-8.457.292l-4.082.875-23.04 32.66 12.831 15.455 26.24-33.24.779-9.418 5.507 6.157c1.836.236 3.585.257 5.249-.583l15.549 17.356-2.589 2.526c.875.972 1.477 1.593 2.352 2.565.875-.583 1.71-1.283 2.585-1.867.292.39.778 1.129 1.07 1.518-1.303.709-2.217 1.653-3.52 2.362-2.085-1.359-4.098-3.051-3.945-5.744l-8.748 7.29-.292 1.458-25.953 21.579-2.333.292-.583 6.707 16.913-13.997v-2.042l1.75 1.458 13.12-10.497c0 0 .875 1.166.584 1.166-.292 0-11.665 10.498-11.665 10.498l-.291 1.166-2.042 1.75-1.166-.875-15.747 13.997h-2.333l-8.748 8.749c-2.256.196-4.212.435-6.124 1.749l-15.67 13.835z" stroke-linejoin="round" stroke-linecap="round"/></g></g></svg>
